X:1
T:Now Dies in David’s City
T:Now Dies in David’s City
T:John Swire
T:James Barmby, 19th Century
T:Public Domain Courtesy of the Cyber Hymnal™
T:Public Domain Courtesy of the Cyber Hymnal™
C:John Swire
Z:Public Domain
Z:Courtesy of the Cyber Hymnal™
%%score ( 1 2 ) ( 3 4 )
L:1/8
Q:1/4=105
M:4/4
K:Eb
V:1 treble 
V:2 treble 
V:3 bass 
V:4 bass 
V:1
 [EG]2 | [FB]2 [Ee]2 [DG]2 F2 | B3 (z G) [CE]2 (ED) | ([A,C][B,D]) E2 [EF]2 (GA) | [EG]4 z (G=A) | %5
w: 1.~Now|dies in Da- vid’s|ci- * ty The *|world’s * dis- cor- dant *|din, And *|
w: 2.~The|world was dull of|hear- * ing To *|mu- * sic from on *|high: But *|
w: 3.~For|Jo- seph and for|Ma- * ry There *|was * no room at *|all: The *|
w: 4.~But|for God’s ho- ly|pil- * grim There *|needs * no lord- ly *|bed: For *|
 [GB]2 (=AB) G2 (Bc) | ([Fd]2 cd) [DB]2 (=AG) | (FG) (=AB) [Gc]2 ([FB][EA]) |"^rall." B6 || %9
w: slum- ber * lulls the *|tu- * * mult In *|Beth- * l’em’s * crowd- ed *|inn.|
w: shep- herds * heard the *|an- * * gels Be- *|neath * the * bend- ing *|sky.|
w: bu- sy * world could *|find * * them No *|shel- * ter * but a *|stall.|
w: lo! an * end- less *|glo- * * ry Beams *|from * that * low- ly *|shed.|
"^Refrain" [DB]2 | [EB]2 ([EG][FA]) [GB]2 [Gc]2 | [Ae]4 [Ad]2 [Gc]2 | [FB]2 (AG) [EA]2 [FB]2 | %13
w: ||||
w: What|means that * mu- sic|ring- ing From|Heav’n at * ear- ly|
w: ||||
w: ||||
 [EG]4!>(! E4-!>)! | [EG]2 [CE][DF] [EG]2 [DG]2 | c4 [EB]2 [EB]2 | [EA]2 [EG]2 [EF]2 (GF) | %17
w: ||||
w: morn? Heard|* ye an an- gel|sing- ing, “The|Christ, the Lord, is *|
w: ||||
w: ||||
 [DF]4 z4 | ([GB][FA])[EG][FA] [GB]2 [FB]2 | [Ee]4"^rall." E2 [EF]2 | ([EG][FA]) [EB]2 G2 z x3 | %21
w: ||||
w: born”?|Heard * ye an an- gel|sing- ing, “The|Christ, * the Lord,|
w: ||||
w: ||||
 E6 |] %22
w: |
w: is|
w: |
w: |
V:2
 x2 | x6 (CD) | (E2 D2 x B,2) x2 | x2 (B,E) x D2 x | x5 G2 | x2 ^F2 G2 E2 | x2 E2 x =E2 x | %7
 F2 F2 x4 | (D2 A2 G2) || x2 | x8 | x8 | x2 D2 x4 | x8 | x8 | (C2 D2) x4 | x6 E2 | x8 | x8 | %19
 x4 E2 x2 | x4 E3 (F2 D) | E6 |] %22
V:3
 [E,B,]2 | [D,B,]2 [C,G,]2 [B,,G,]2 [A,,A,]2 | B,4 [C,G,]2 [G,,B,]2 x | %3
 [A,,A,]2 [G,,B,]2 [A,,C]2 [B,,B,]2 | [E,B,]4 z (B,C) | [B,,D]2 [D,C]2 [G,B,]2 [_G,B,]2 | %6
 (B,2 =A,2) [G,B,]2 (CB,) | (=A,B,) ([E,C][D,B,]) (G,E) (DC) | (B,2 C2 B,2) || [B,,A,]2 | %10
 [E,G,]2 [B,,B,]2 [E,B,]2 [E,E]2 | [F,B,]2 [B,,E]2 [F,B,]2 [E,C]2 | %12
 [D,F,]2 [B,,B,]2 [C,A,]2 [D,F,]2 | [E,B,]4 z4 | [C,C]2 [C,C][C,C] [C,C]2 [C,G,]2 | %15
 (A,2 F,2) [G,,B,]2 (B,_D) | [A,,C]2 [A,,B,]2 [C,=A,]2 [F,,A,]2 | [B,,B,]4!>(! B,4-!>)! | %18
 [E,B,]2 [E,B,][E,B,] [E,B,]2 [D,B,]2 | (G,2 F,2) [=C,G,]2 [_C,A,]2 | %20
 [B,,B,]2 ([G,,B,][A,,C]) (B,G,) [B,,A,]2 x2 | [E,G,]6 |] %22
V:4
 x2 | x8 | (G,,2 B,,2) x5 | x8 | x5 E,2 | x8 | F,4 C,2 x2 | F,2 x E,2 F,2 x | B,,6 || x2 | x8 | %11
 x8 | x8 | x8 | x8 | A,,4 G,,2 x2 | x8 | x8 | x8 | _C,4 x4 | x4 B,,2 x4 | x6 |] %22

